svgs/sharp-solid/comment-lines.svg

<svg xmlns="http://www.w3.org/2000/svg" viewBox="0 0 512 512"><!--! Font Awesome Pro 6.6.0 by @fontawesome - https://fontawesome.com License - https://fontawesome.com/license (Commercial License) Copyright 2024 Fonticons, Inc. --><path d="M512 240c0 114.9-114.6 208-256 208c-31.5 0-61.7-4.6-89.6-13.1L16 480 56.9 370.8C21.3 335.1 0 289.6 0 240C0 125.1 114.6 32 256 32s256 93.1 256 208zM152 176l-24 0 0 48 24 0 208 0 24 0 0-48-24 0-208 0zm0 96l-24 0 0 48 24 0 112 0 24 0 0-48-24 0-112 0z"/></svg>

<svg xmlns="http://www.w3.org/2000/svg" viewBox="0 0 512 512"><!--! Font Awesome Pro 6.4.0 by @fontawesome - https://fontawesome.com License - https://fontawesome.com/license (Commercial License) Copyright 2023 Fonticons, Inc. --><path d="M512 240c0 114.9-114.6 208-256 208c-31.5 0-61.7-4.6-89.6-13.1L16 480 56.9 370.8C21.3 335.1 0 289.6 0 240C0 125.1 114.6 32 256 32s256 93.1 256 208zM152 176H128v48h24H360h24V176H360 152zm0 96H128v48h24H264h24V272H264 152z"/></svg>
